symbols/web/content_copy/materialsymbolsoutlined/content_copy_fill1_48px.svg

<svg xmlns="http://www.w3.org/2000/svg" height="48" width="48"><path d="M15 37.95Q13.8 37.95 12.9 37.05Q12 36.15 12 34.95V6.95Q12 5.75 12.9 4.85Q13.8 3.95 15 3.95H37Q38.2 3.95 39.1 4.85Q40 5.75 40 6.95V34.95Q40 36.15 39.1 37.05Q38.2 37.95 37 37.95ZM9 43.95Q7.8 43.95 6.9 43.05Q6 42.15 6 40.95V10.8H9V40.95Q9 40.95 9 40.95Q9 40.95 9 40.95H32.7V43.95Z"/></svg>

<svg xmlns="http://www.w3.org/2000/svg" height="48" width="48"><path d="M9 43.95q-1.2 0-2.1-.9-.9-.9-.9-2.1V10.8h3v30.15h23.7v3Zm6-6q-1.2 0-2.1-.9-.9-.9-.9-2.1v-28q0-1.2.9-2.1.9-.9 2.1-.9h22q1.2 0 2.1.9.9.9.9 2.1v28q0 1.2-.9 2.1-.9.9-2.1.9Z"/></svg>
